; generated by Slic3r 0.9.10b on 2014-01-11 at 13:41:23

; layer_height = 0.25
; perimeters = 2
; top_solid_layers = 3
; bottom_solid_layers = 3
; fill_density = 0.3
; perimeter_speed = 30
; infill_speed = 30
; travel_speed = 130
; nozzle_diameter = 0.3
; filament_diameter = 1.75
; extrusion_multiplier = 1.0
; perimeters extrusion width = 0.32mm
; infill extrusion width = 0.32mm
; solid infill extrusion width = 0.32mm
; top infill extrusion width = 0.32mm
; first layer extrusion width = 0.38mm

G21 ; set units to millimeters
;G28 ; home all axes
G1 Z0.25  ; lift nozzle
G90 ; use absolute coordinates
G92 E0 ; reset extrusion distance
M82 ; use absolute distances for extrusion
G1 F1800.000 E-1.00000 ; retract
G1 Z0.500 F7800.000 ; move to next layer (0) and lift
G92 E0 ; reset extrusion distance
G1 X53.820 Y58.535 ; move to first skirt point
G1 Z0.250 ; restore layer Z
G1 F1800.000 E1.00000 ; compensate retraction
G1 X55.290 Y57.225 F540.000 E1.07345 ; skirt
G1 X57.160 Y55.695 E1.16358 ; skirt
G1 X58.770 Y54.475 E1.23894 ; skirt
G1 X60.590 Y53.205 E1.32173 ; skirt
G1 X62.660 Y51.875 E1.41351 ; skirt
G1 X64.560 Y50.765 E1.49560 ; skirt
G1 X66.530 Y49.715 E1.57887 ; skirt
G1 X68.290 Y48.865 E1.65178 ; skirt
G1 X70.560 Y47.875 E1.74417 ; skirt
G1 X72.600 Y47.085 E1.82577 ; skirt
G1 X74.410 Y46.455 E1.89727 ; skirt
G1 X76.830 Y45.715 E1.99167 ; skirt
G1 X78.730 Y45.225 E2.06486 ; skirt
G1 X81.050 Y44.715 E2.15347 ; skirt
G1 X83.030 Y44.355 E2.22855 ; skirt
G1 X85.500 Y44.015 E2.32156 ; skirt
G1 X87.680 Y43.805 E2.40325 ; skirt
G1 X89.930 Y43.675 E2.48733 ; skirt
G1 X91.900 Y43.645 E2.56083 ; skirt
G1 X114.040 Y43.645 E3.38673 ; skirt
G1 X115.300 Y43.775 E3.43398 ; skirt
G1 X116.500 Y44.145 E3.48083 ; skirt
G1 X117.610 Y44.745 E3.52790 ; skirt
G1 X118.580 Y45.555 E3.57504 ; skirt
G1 X119.370 Y46.535 E3.62200 ; skirt
G1 X119.950 Y47.655 E3.66905 ; skirt
G1 X120.300 Y48.865 E3.71603 ; skirt
G1 X129.380 Y98.865 E5.61173 ; skirt
G1 X129.450 Y99.435 E5.63316 ; skirt
G1 X129.480 Y100.005 E5.65445 ; skirt
G1 X129.480 Y120.005 E6.40052 ; skirt
G1 X129.320 Y121.405 E6.45309 ; skirt
G1 X128.870 Y122.725 E6.50511 ; skirt
G1 X128.130 Y123.925 E6.55771 ; skirt
G1 X127.150 Y124.925 E6.60994 ; skirt
G1 X104.620 Y143.355 E7.69577 ; skirt
G1 X104.170 Y143.685 E7.71659 ; skirt
G1 X103.540 Y144.115 E7.74504 ; skirt
G1 X103.040 Y144.425 E7.76699 ; skirt
G1 X102.390 Y144.785 E7.79470 ; skirt
G1 X101.850 Y145.055 E7.81723 ; skirt
G1 X101.140 Y145.365 E7.84613 ; skirt
G1 X100.510 Y145.595 E7.87114 ; skirt
G1 X99.780 Y145.825 E7.89970 ; skirt
G1 X99.130 Y145.995 E7.92476 ; skirt
G1 X98.390 Y146.145 E7.95293 ; skirt
G1 X97.800 Y146.235 E7.97519 ; skirt
G1 X97.040 Y146.315 E8.00370 ; skirt
G1 X96.370 Y146.355 E8.02873 ; skirt
G1 X73.620 Y146.355 E8.87740 ; skirt
G1 X72.950 Y146.315 E8.90243 ; skirt
G1 X72.190 Y146.235 E8.93094 ; skirt
G1 X71.600 Y146.145 E8.95321 ; skirt
G1 X70.860 Y145.995 E8.98137 ; skirt
G1 X70.210 Y145.825 E9.00644 ; skirt
G1 X69.480 Y145.595 E9.03499 ; skirt
G1 X68.890 Y145.375 E9.05848 ; skirt
G1 X68.190 Y145.075 E9.08689 ; skirt
G1 X67.580 Y144.785 E9.11208 ; skirt
G1 X66.920 Y144.415 E9.14031 ; skirt
G1 X65.820 Y143.685 E9.18956 ; skirt
G1 X65.370 Y143.355 E9.21037 ; skirt
G1 X42.840 Y124.925 E10.29621 ; skirt
G1 X41.860 Y123.925 E10.34844 ; skirt
G1 X41.120 Y122.725 E10.40103 ; skirt
G1 X40.670 Y121.405 E10.45305 ; skirt
G1 X40.510 Y120.005 E10.50562 ; skirt
G1 X40.510 Y78.465 E12.05522 ; skirt
G1 X40.680 Y77.025 E12.10931 ; skirt
G1 X41.160 Y75.665 E12.16311 ; skirt
G1 X41.830 Y74.305 E12.21967 ; skirt
G1 X42.760 Y72.565 E12.29326 ; skirt
G1 X44.010 Y70.435 E12.38539 ; skirt
G1 X45.070 Y68.785 E12.45855 ; skirt
G1 X46.320 Y66.985 E12.54030 ; skirt
G1 X47.800 Y65.025 E12.63192 ; skirt
G1 X49.220 Y63.295 E12.71541 ; skirt
G1 X50.530 Y61.825 E12.78886 ; skirt
G1 X52.060 Y60.235 E12.87118 ; skirt
G1 X53.781 Y58.572 E12.96045 ; skirt
G1 Z10 F7800.000 ; lift plate during travel
G92 E0 ; reset extrusion distance
