; generated by Slic3r 0.9.10b on 2014-01-11 at 13:41:23

; layer_height = 0.25
; perimeters = 2
; top_solid_layers = 3
; bottom_solid_layers = 3
; fill_density = 0.3
; perimeter_speed = 30
; infill_speed = 30
; travel_speed = 130
; nozzle_diameter = 0.3
; filament_diameter = 1.75
; extrusion_multiplier = 1.0
; perimeters extrusion width = 0.32mm
; infill extrusion width = 0.32mm
; solid infill extrusion width = 0.32mm
; top infill extrusion width = 0.32mm
; first layer extrusion width = 0.38mm

G21 ; set units to millimeters
;G28 ; home all axes
G1 Z0.25  ; lift nozzle
G90 ; use absolute coordinates
G92 E0 ; reset extrusion distance
M82 ; use absolute distances for extrusion
G1 F1800.000 E-1.00000 ; retract
G1 Z0.500 F7800.000 ; move to next layer (0) and lift
G92 E0 ; reset extrusion distance
G1 X25.000 Y100.0 ; move to first skirt point
G1 Z0.250 ; restore layer Z
G1 F1800.000 E1.00000 ; compensate retraction
G1 X25.0 Y150.000 F540.000 E3.5 ; skirt
G1 X150.0 Y150.000 E8.5 ; skirt
G1 X150.0 Y25.000 E13.5 ; skirt
G1 X25.0 Y25.000 E18.5 ; skirt
G1 X25.0 Y100.000 E21.0 ; skirt
G1 Z13.750 F7800.000 ; lift plate during travel
G92 E0 ; reset extrusion distance
